icons/hexagon-check.svg

<svg xmlns="http://www.w3.org/2000/svg" width="24" height="24" viewBox="0 0 24 24">
  <path d="M16.3173342,1 C17.0224657,1 17.6754933,1.37131518 18.0360686,1.97728201 L23.3914405,10.977282 C23.7664613,11.6075253 23.7664613,12.3924747 23.3914405,13.022718 L18.0360686,22.022718 C17.6754933,22.6286848 17.0224657,23 16.3173342,23 L7.68266576,23 C6.97753431,23 6.32450667,22.6286848 5.96393136,22.022718 L0.608559463,13.022718 C0.233538656,12.3924747 0.233538656,11.6075253 0.608559463,10.977282 L5.96393136,1.97728201 C6.32450667,1.37131518 6.97753431,1 7.68266576,1 L16.3173342,1 Z M16.6853647,8.27180001 C16.2831909,7.89328354 15.6503165,7.91246155 15.2718,8.3146353 L15.2718,8.3146353 L10.352,13.54 L8.72819999,11.8146353 L8.63655559,11.7286314 C8.25368331,11.4118643 7.68587261,11.4224002 7.3146353,11.7718 C6.91246155,12.1503165 6.89328354,12.7831909 7.27180001,13.1853647 L7.27180001,13.1853647 L9.62474118,15.6853647 L9.71331242,15.7688394 C10.1134372,16.1027381 10.7145073,16.0749132 11.0811412,15.6853647 L11.0811412,15.6853647 L16.7282,9.6853647 L16.808497,9.58868088 C17.1014998,9.18733072 17.056602,8.62119983 16.6853647,8.27180001 Z"/>
</svg>

<svg xmlns="http://www.w3.org/2000/svg" viewBox="0 0 24 24">
  <path d="M16.32 1a2 2 0 0 1 1.72.98l5.35 9a2 2 0 0 1 0 2.04l-5.35 9a2 2 0 0 1-1.72.98H7.68a2 2 0 0 1-1.72-.98l-5.35-9a2 2 0 0 1 0-2.04l5.35-9A2 2 0 0 1 7.68 1h8.64zm.37 7.27a1 1 0 0 0-1.42.04l-4.92 5.23-1.62-1.73-.1-.08a1 1 0 0 0-1.36 1.46l2.35 2.5.1.08a1 1 0 0 0 1.36-.08l5.65-6 .08-.1a1 1 0 0 0-.12-1.32z"/>
</svg>
